X: 1
T: Vossarull
O: Norway
M: 2/4
L: 1/8
K: D
%%indent 300
[e2A2D2A,2] y2 \
"Intro"FA \
| G2 [EB,]C | E D2 F | EC CD- | D2 ||
"A"\
|: [AF]D \
| "D"cd ef | ^g a2 b | a^g af | eG FD | cd fb | ^g a2 f | ec A2- | A2 :|
"B"\
|: [AF]D \
| "D"cd ef | ^g a2 b | a^g ga- | a2 fb | "A"ae f^g | a^g ab | "E"a^g ga- | "A"a2 :|
"C"\
|: ce \
| "D"a2 fd | "A"c2 ec | d2 B^G | "E"E2 b^g | "A"[a2A2] [fB]d | "E"ce ^GB | "A"Bc ^GA | "A"A2 :|
"D"\
[| AF | D2 EG \
|: "D"F2 DF | G2 EC | "A"A,2 ec | "D"d2 B2 | "A"[A2F2] EG | "D"EF D2 |1 D2 FA | d2 BG :|2 "D"D2 |]
"E"\
|: FA \
| "A7"G2 EC | A,2 ef | "D"f2 ce | "A"A2 DF | "Em"G2 E^G | "A"BA Ac | "E7"BA ^GA | "A"A2 FA |
| "A7"G2 EC | A,2 ef | "D"f2 ce | "A"[e2A2] [fA][bB-] | [g2B2] [eA]c | "D"c d2 f | "A"fe cd | "D"d2 :|
